X: 243
T: No_97_Black_Grass_Dance_Song_(b).krn
N: Derived from No_97_Black_Grass_Dance_Song_(b).krn
%%abc-version 2.0
%%abcx-abcm2ps-target-version 5.9.1 (29 Sep 2008)
%%abc-creator hum2abc beta
%%abcx-conversion-date 2019/03/15 08:38:45
%%humdrum-veritas 374436762
%%humdrum-veritas-data 3897623799
%%linebreak <none>
%%barnumbers 0
L: 1/8
M: 3/4
K: E clef=bass
[K:clef=bass][M:3/4]z4z3/ B,/ ]|:  
(B,G,)G,2z3/ B,/ | 
(B,G,)(G,2E,3/)F,/ ||  
[M:3/8](3F,E,B,, E, ||  
[M:2/4]C,2C, z | 
z3/ C,/C,2 | 
(G,2E,3/)F,/ ||  
[M:3/8](3F,E,B,, E, ||  
[M:2/4]C,2C, z/ B,/ :|]  
C,2C, z |]  



